images/partly-cloudy-day-hail.svg

<svg xmlns="http://www.w3.org/2000/svg" xmlns:xlink="http://www.w3.org/1999/xlink" viewBox="0 0 64 64"><defs><linearGradient id="b" x1="16.5" x2="21.5" y1="19.67" y2="28.33" gradientUnits="userSpaceOnUse"><stop offset="0" stop-color="#fbbf24"/><stop offset=".45" stop-color="#fbbf24"/><stop offset="1" stop-color="#f59e0b"/></linearGradient><linearGradient id="c" x1="22.56" x2="39.2" y1="21.96" y2="50.8" gradientUnits="userSpaceOnUse"><stop offset="0" stop-color="#f3f7fe"/><stop offset=".45" stop-color="#f3f7fe"/><stop offset="1" stop-color="#deeafb"/></linearGradient><linearGradient id="a" x1="23.25" x2="24.75" y1="43.7" y2="46.3" gradientUnits="userSpaceOnUse"><stop offset="0" stop-color="#86c3db"/><stop offset=".45" stop-color="#86c3db"/><stop offset="1" stop-color="#5eafcf"/></linearGradient><linearGradient id="d" x1="30.25" x2="31.75" y1="43.7" y2="46.3" xlink:href="#a"/><linearGradient id="e" x1="37.25" x2="38.75" y1="43.7" y2="46.3" xlink:href="#a"/></defs><circle cx="19" cy="24" r="5" fill="url(#b)" stroke="#f8af18" stroke-miterlimit="10" stroke-width=".5"/><path fill="none" stroke="#fbbf24" stroke-linecap="round" stroke-miterlimit="10" stroke-width="2" d="M19 15.67V12.5m0 23v-3.17m5.89-14.22l2.24-2.24M10.87 32.13l2.24-2.24m0-11.78l-2.24-2.24m16.26 16.26l-2.24-2.24M7.5 24h3.17m19.83 0h-3.17"><animateTransform attributeName="transform" dur="45s" repeatCount="indefinite" type="rotate" values="0 19 24; 360 19 24"/></path><path fill="url(#c)" stroke="#e6effc" stroke-miterlimit="10" stroke-width=".5" d="M46.5 31.5h-.32a10.49 10.49 0 00-19.11-8 7 7 0 00-10.57 6 7.21 7.21 0 00.1 1.14A7.5 7.5 0 0018 45.5a4.19 4.19 0 00.5 0v0h28a7 7 0 000-14z"/><path fill="url(#a)" d="M24 43.5a1.5 1.5 0 101.5 1.5 1.5 1.5 0 00-1.5-1.5z"><animateTransform attributeName="transform" dur="0.6s" repeatCount="indefinite" type="translate" values="1 -5; -2 18; -4 14"/><animate attributeName="opacity" dur="0.6s" repeatCount="indefinite" values="1;1;0"/></path><path fill="url(#d)" d="M31 43.5a1.5 1.5 0 101.5 1.5 1.5 1.5 0 00-1.5-1.5z"><animateTransform attributeName="transform" begin="-0.4s" dur="0.6s" repeatCount="indefinite" type="translate" values="1 -5; -2 18; -4 14"/><animate attributeName="opacity" begin="-0.4s" dur="0.6s" repeatCount="indefinite" values="1;1;0"/></path><path fill="url(#e)" d="M38 43.5a1.5 1.5 0 101.5 1.5 1.5 1.5 0 00-1.5-1.5z"><animateTransform attributeName="transform" begin="-0.2s" dur="0.6s" repeatCount="indefinite" type="translate" values="1 -5; -2 18; -4 14"/><animate attributeName="opacity" begin="-0.2s" dur="0.6s" repeatCount="indefinite" values="1;1;0"/></path></svg>

<svg xmlns="http://www.w3.org/2000/svg" xmlns:xlink="http://www.w3.org/1999/xlink" viewBox="0 0 64 64">
	<defs>
		<linearGradient id="a" x1="16.5" y1="19.67" x2="21.5" y2="28.33" gradientUnits="userSpaceOnUse">
			<stop offset="0" stop-color="#fbbf24"/>
			<stop offset="0.45" stop-color="#fbbf24"/>
			<stop offset="1" stop-color="#f59e0b"/>
		</linearGradient>
		<linearGradient id="b" x1="22.56" y1="21.96" x2="39.2" y2="50.8" gradientUnits="userSpaceOnUse">
			<stop offset="0" stop-color="#f3f7fe"/>
			<stop offset="0.45" stop-color="#f3f7fe"/>
			<stop offset="1" stop-color="#deeafb"/>
		</linearGradient>
		<linearGradient id="c" x1="23.25" y1="43.7" x2="24.75" y2="46.3" gradientUnits="userSpaceOnUse">
			<stop offset="0" stop-color="#86c3db"/>
			<stop offset="0.45" stop-color="#86c3db"/>
			<stop offset="1" stop-color="#5eafcf"/>
		</linearGradient>
		<linearGradient id="d" x1="30.25" y1="43.7" x2="31.75" y2="46.3" xlink:href="#c"/>
		<linearGradient id="e" x1="37.25" y1="43.7" x2="38.75" y2="46.3" xlink:href="#c"/>
	</defs>
	<circle cx="19" cy="24" r="5" stroke="#f8af18" stroke-miterlimit="10" stroke-width="0.5" fill="url(#a)"/>
	<path d="M19,15.67V12.5m0,23V32.33m5.89-14.22,2.24-2.24M10.87,32.13l2.24-2.24m0-11.78-2.24-2.24M27.13,32.13l-2.24-2.24M7.5,24h3.17M30.5,24H27.33" fill="none" stroke="#fbbf24" stroke-linecap="round" stroke-miterlimit="10" stroke-width="2">
		<animateTransform attributeName="transform" type="rotate" values="0 19 24; 360 19 24" dur="45s" repeatCount="indefinite"/>
	</path>
	<path d="M46.5,31.5l-.32,0a10.49,10.49,0,0,0-19.11-8,7,7,0,0,0-10.57,6,7.21,7.21,0,0,0,.1,1.14A7.5,7.5,0,0,0,18,45.5a4.19,4.19,0,0,0,.5,0v0h28a7,7,0,0,0,0-14Z" stroke="#e6effc" stroke-miterlimit="10" stroke-width="0.5" fill="url(#b)"/>
	<path d="M24,43.5A1.5,1.5,0,1,0,25.5,45,1.5,1.5,0,0,0,24,43.5Z" fill="url(#c)">
		<animateTransform attributeName="transform" type="translate" values="1 -5; -2 18; -4 14" dur="0.6s" repeatCount="indefinite"/>
		<animate attributeName="opacity" values="1;1;0" dur="0.6s" repeatCount="indefinite"/>
	</path>
	<path d="M31,43.5A1.5,1.5,0,1,0,32.5,45,1.5,1.5,0,0,0,31,43.5Z" fill="url(#d)">
		<animateTransform attributeName="transform" type="translate" values="1 -5; -2 18; -4 14" dur="0.6s" begin="-0.4s" repeatCount="indefinite"/>
		<animate attributeName="opacity" values="1;1;0" dur="0.6s" begin="-0.4s" repeatCount="indefinite"/>
	</path>
	<path d="M38,43.5A1.5,1.5,0,1,0,39.5,45,1.5,1.5,0,0,0,38,43.5Z" fill="url(#e)">
		<animateTransform attributeName="transform" type="translate" values="1 -5; -2 18; -4 14" dur="0.6s" begin="-0.2s" repeatCount="indefinite"/>
		<animate attributeName="opacity" values="1;1;0" dur="0.6s" begin="-0.2s" repeatCount="indefinite"/>
	</path>
</svg>
